X:1
T: Argyll is my name
C:
R:Jig
Q:180
K:D
M:6/8
L:1/16
|:A2|d2e2d2 d2c2d2|f2e2e2 e4g2|f2e2d2 f2a2A2|A2B2c2 d2f2e2|
d2e2d2 d2c2d2|f2e2e2 e4g2|f2e2d2 f2a2A2|A2B2c2 d4:|
|:a2|a2f2d2 d2f2a2|a2g2f2 g4b2|a2f2d2 d2f2a2|a2g2f2 e4f2|
g2a2g2 g2a2g2|A2B2A2 g2a2g2|f2e2d2 f2a2A2|A2B2c2 d4:|
